X: 59
T: No_22_Dancing_Song_from_the_South_God_(e).krn
N: Derived from No_22_Dancing_Song_from_the_South_God_(e).krn
%%abc-version 2.0
%%abcx-abcm2ps-target-version 5.9.1 (29 Sep 2008)
%%abc-creator hum2abc beta
%%abcx-conversion-date 2019/03/15 08:35:44
%%humdrum-veritas 4260713777
%%humdrum-veritas-data 3554239090
%%linebreak <none>
%%barnumbers 0
L: 1/8
M: 3/8
K: D clef=bass
[K:clef=bass][M:3/8]A,3/E,/E,/ z/ | 
F,3/D,/D,/ z/ | 
A,3/E,/E,/ z/ ]|:  
[M:2/4](3F,D,D, D,3/D,/ | 
D,D, D, z | 
(3F,D,D, D,3/D,/ | 
D,D, D, z | 
(3F,D,D, D,3/D,/ | 
D,D, D, z :|]  



